exported-svg/maximize.svg

<svg height="24" viewBox="0 0 24 24" width="24" xmlns="http://www.w3.org/2000/svg"><path d="m8.5 3c.27614237 0 .5.22385763.5.5s-.22385763.5-.5.5h-3c-.82842712 0-1.5.67157288-1.5 1.5v3c0 .27614237-.22385763.5-.5.5s-.5-.22385763-.5-.5v-3c0-1.38071187 1.11928813-2.5 2.5-2.5zm13.5 5.5c0 .27614237-.2238576.5-.5.5s-.5-.22385763-.5-.5v-3c0-.82842712-.6715729-1.5-1.5-1.5h-3c-.2761424 0-.5-.22385763-.5-.5s.2238576-.5.5-.5h3c1.3807119 0 2.5 1.11928813 2.5 2.5zm-5.5 13.5c-.2761424 0-.5-.2238576-.5-.5s.2238576-.5.5-.5h3c.8284271 0 1.5-.6715729 1.5-1.5v-3c0-.2761424.2238576-.5.5-.5s.5.2238576.5.5v3c0 1.3807119-1.1192881 2.5-2.5 2.5zm-13.5-5.5c0-.2761424.22385763-.5.5-.5s.5.2238576.5.5v3c0 .8284271.67157288 1.5 1.5 1.5h3c.27614237 0 .5.2238576.5.5s-.22385763.5-.5.5h-3c-1.38071187 0-2.5-1.1192881-2.5-2.5z"/></svg>

<?xml version="1.0" encoding="UTF-8"?>
<svg width="24px" height="24px" viewBox="0 0 24 24" version="1.1" xmlns="http://www.w3.org/2000/svg" xmlns:xlink="http://www.w3.org/1999/xlink">
    <!-- Generator: Sketch 55.2 (78181) - https://sketchapp.com -->
    <title>maximize</title>
    <desc>Created with Sketch.</desc>
    <g id="maximize" stroke="none" stroke-width="1" fill="none" fill-rule="evenodd">
        <path d="M8.5,3 C8.77614237,3 9,3.22385763 9,3.5 C9,3.77614237 8.77614237,4 8.5,4 L5.5,4 C4.67157288,4 4,4.67157288 4,5.5 L4,8.5 C4,8.77614237 3.77614237,9 3.5,9 C3.22385763,9 3,8.77614237 3,8.5 L3,5.5 C3,4.11928813 4.11928813,3 5.5,3 L8.5,3 Z M22,8.5 C22,8.77614237 21.7761424,9 21.5,9 C21.2238576,9 21,8.77614237 21,8.5 L21,5.5 C21,4.67157288 20.3284271,4 19.5,4 L16.5,4 C16.2238576,4 16,3.77614237 16,3.5 C16,3.22385763 16.2238576,3 16.5,3 L19.5,3 C20.8807119,3 22,4.11928813 22,5.5 L22,8.5 Z M16.5,22 C16.2238576,22 16,21.7761424 16,21.5 C16,21.2238576 16.2238576,21 16.5,21 L19.5,21 C20.3284271,21 21,20.3284271 21,19.5 L21,16.5 C21,16.2238576 21.2238576,16 21.5,16 C21.7761424,16 22,16.2238576 22,16.5 L22,19.5 C22,20.8807119 20.8807119,22 19.5,22 L16.5,22 Z M3,16.5 C3,16.2238576 3.22385763,16 3.5,16 C3.77614237,16 4,16.2238576 4,16.5 L4,19.5 C4,20.3284271 4.67157288,21 5.5,21 L8.5,21 C8.77614237,21 9,21.2238576 9,21.5 C9,21.7761424 8.77614237,22 8.5,22 L5.5,22 C4.11928813,22 3,20.8807119 3,19.5 L3,16.5 Z" id="Shape" fill="#000000" fill-rule="nonzero"></path>
    </g>
</svg>
